core/assets/icons/сalls_fail.filled.svg

<svg width="24" height="24" viewBox="0 0 24 24" xmlns="http://www.w3.org/2000/svg"><g id="state=filled"><g id="Vector"><path d="M20.7715 16.3834L20.7727 16.3847C20.9172 16.5459 20.9996 16.7557 20.9996 16.9754V16.9789L20.9989 17.3583V20.5615C20.9989 20.9143 20.8648 21.2543 20.6251 21.5124C20.3844 21.7704 20.0545 21.9276 19.7024 21.9521C19.2551 21.9829 18.8864 21.9998 18.5921 21.9998C9.42816 21.9996 2.00024 14.5716 2 5.40707C2.00005 5.11383 2.01572 4.74483 2.04768 4.29629C2.07217 3.94432 2.22937 3.61457 2.48768 3.37407C2.74562 3.13398 3.08506 3.00021 3.4379 3.00025H7.0206C7.23953 3.0002 7.45207 3.08114 7.61571 3.22953C7.77935 3.37722 7.88149 3.58062 7.90334 3.79835C7.92639 4.02851 7.94731 4.21081 7.96633 4.34157C8.16239 5.70936 8.56406 7.03953 9.15764 8.28705C9.21247 8.40246 9.23914 8.52645 9.23909 8.64826C9.23942 8.91289 9.11344 9.17213 8.88505 9.33424L8.88611 9.3335L6.96076 10.7096C8.24318 13.5124 10.4878 15.7576 13.2908 17.0397L14.6653 15.1176C14.7806 14.9566 14.9491 14.8405 15.1417 14.7908C15.2116 14.7727 15.2832 14.7636 15.3547 14.7636C15.4787 14.7636 15.6037 14.7916 15.7175 14.8451C16.9647 15.4372 18.2939 15.8379 19.6608 16.0329C19.7947 16.052 19.9751 16.0737 20.2012 16.0955L20.2031 16.0956L20.205 16.0958C20.4227 16.1189 20.6242 16.2216 20.7705 16.3824L20.7715 16.3834Z"/><path fill-rule="evenodd" clip-rule="evenodd" d="M17.2 11.6002C19.851 11.6002 22 9.45121 22 6.80024C22 4.14928 19.851 2.00024 17.2 2.00024C14.549 2.00024 12.4 4.14928 12.4 6.80024C12.4 9.45121 14.549 11.6002 17.2 11.6002ZM16.6 4.33385V7.31974H17.8V4.33385H16.6ZM16.6 8.02521V9.22521H17.8V8.02521H16.6Z"/></g></g></svg>

<svg xmlns="http://www.w3.org/2000/svg" width="24" height="24" fill="none"><g fill="#191C22"><path d="m20.771 16.383.002.002a.886.886 0 0 1 .227.59v.004l-.001.38v3.202a1.395 1.395 0 0 1-1.296 1.39c-.448.032-.817.049-1.11.049C9.427 22 2 14.572 2 5.407c0-.293.016-.662.048-1.11A1.392 1.392 0 0 1 3.438 3H7.02a.886.886 0 0 1 .882.798c.023.23.044.413.063.544a13.71 13.71 0 0 0 1.192 3.945.842.842 0 0 1-.273 1.047h.001L6.961 10.71a12.825 12.825 0 0 0 6.33 6.33l1.374-1.922a.846.846 0 0 1 1.053-.273c1.247.592 2.576.993 3.943 1.188.134.019.314.04.54.063h.004c.218.023.42.126.566.286v.001Z"/><path fill-rule="evenodd" d="M17.2 11.6a4.8 4.8 0 1 0 0-9.6 4.8 4.8 0 0 0 0 9.6Zm-.6-7.266V7.32h1.2V4.334h-1.2Zm0 3.691v1.2h1.2v-1.2h-1.2Z" clip-rule="evenodd"/></g></svg>
